X:450
T:I have a wife of my own
C:anon.
O:Ireland
B:O'Neill 1001
R:Hop, Slip jig
M:9/8
L:1/8
K:Dmix
EFE (G2A) B3|(E2F) G2(B A)FD|EFE (G2A) Bcd|DFA (dc)(B A)FD|
||gag fgf e3|EFE G2A BGE|gbg faf d3|DFA dcB AFD|gag fgf e3|EFE G2A BGE|gbg afd g3|DFA dcB AFD|]


